!!!OTL: Die Schwestern des Schicksals.
!!!OTL-incipit: NENNE NICHT DAS SCHICKSAL GRAUSAM
!!!COM: Ch. G. Neefe
!!!ARE: Europa, Mitteleuropa, Deutschland
!!!SCT: F1070
!!!TXL: @@DE
!!!YEM: Copyright 1995, estate of Helmut Schaffrath.
**kern	**text
*ICvox	*
*clefG2	*
*M4/4	*
*met(c)	*
*k[f#]	*
*G:	*
!LO:TX:a:t=Gehend.	!
!LO:TX:a:t=P:only the highest voice encoded:problem	!
{8.g	1._Nenne
16b/	.
=1	=1
4dd	nicht
4d	das
4d	Schickſal
4d	.
=2	=2
4eM	grauſam,
4d	.
4r}	.
{8.d	nen-
16g	-ne
=3	=3
(4g	ſei-
8f#)	.
8a	-nen
(4a	Schluß
8g)	.
8b/	nicht
=4	=4
4bqq	.
2a	Neid;
2r}	.
=5	=5
{2dd/	ſein
2dd/	Ge-
=6	=6
4.dd	-ſetʒ
16eeL	iſt
16ff#J	.
4gg	ew'-
4dd	-ge
=7	=7
8dd/L	Wahrheit,
8ccJ	.
4b/	.
2r}	.
=8	=8
{2ee/	ſei-
2ee/	-ne
=9	=9
4.ee	Gü-
16ff#L	-te
16gg#J	.
4aa	Götter-
4ee	.
=10	=10
8eeqq	.
4dd	-klar-
4cc	-heit,
2r}	.
=11	=11
{2ee/	ſei-
2ff#/	-ne
=12	=12
2.gg}	Macht
{(8.eeL	Noth-
16gJ)	.
=13	=13
(>2g	-wen-
8b/L)	.
8aJ	.
(8gL	-dig-
8aJ)	.
=14	=14
2g	-keit.
4r}	.
==	==
!!!AGN: Trost - Lied
!!!ONB: ESAC (Essen Associative Code) Database: FINK
!!!AMT: simple quadruple
!!!AIN: vox
!!!EED: Helmut Schaffrath
!!!EEV: 1.0
!!!RDF**kern: > = above
!!!GTL: Trauer- Begraebniss- und Trostlieder
!!!URL-scan: https://www.digitale-sammlungen.de/en/view/bsb11144622?page=678
!!!ENC: Anna Maria Matuszewska
!!!EEV: 2024/08/09
*-	*-
